X:1
T:Title
%%score { 1 | ( 2 3 ) }
L:1/8
M:4/4
K:G
V:1 treble nm="Grand Piano"
V:2 bass 
V:3 bass 
V:1
 z4 z2[Q:1/4=100] D2 | D2 G2 G2 [EA]2 | G4 F2 E2 | E2 [EA]2 [CA]2 [Ec]2 |[M:3/4] [CF]4 [B,G]2 | %5
[M:1/4] B2 |[M:4/4] B2 G2 E2 A2 | D4 z2 A2 | G2 F2 E2 D2 | d4 B2 [DB]2 | %10
 [EB]2 [G,E]2 [A,CE]2 [A,CA]2 | A4 D2 G2 | [DF]2 [CE]2 [B,D]2 [B,G]2 | [Ec]4 [CF]4 | %14
[M:7/4] [B,G]4 z2 z2 z2 z4 |[M:4/4] [CG]4 [B,G]4 |] %16
V:2
 z4 z2 [G,B,]2 | [G,B,]2 [G,B,D]2 [E,B,E]2 [C,C]2 | B,4 z4 | [C,A,]2 [C,A,]2 [A,,A,]2 [A,,A,]2 | %4
[M:3/4] [D,A,]4 [G,,G,]2 |[M:1/4] [^D,F,B,]2 |[M:4/4] [G,B,]2 z2 A,2 z2 | [D,F,]4 z2 [D,F,C]2 | %8
 [D,A,C]2 [D,A,C]2 [F,A,C]2 [F,C]2 | [G,B,]4 z4 | [C,G,]2 C,2 A,,2 ^G,,2 | [D,F,C]6 [E,G,B,]2 | %12
 [B,,B,]2 [C,G,]2 [G,,G,]2 [E,G,]2 | [A,,A,]4 [D,A,]4 |[M:7/4] [G,,G,]4 z2 z2 z2 z4 | %15
[M:4/4] [C,E,]4 [G,,D,]4 |] %16
V:3
 x8 | x8 | [D,D]4- [D,A,D]2 [D,^G,B,]2 | x8 |[M:3/4] x6 |[M:1/4] x2 | %6
[M:4/4] E,2- [E,B,E]2 ^C2- [A,,G,C]2 | x8 | x8 | D4- [G,D]2 [G,,G,]2 | x8 | x8 | x8 | x8 | %14
[M:7/4] x14 |[M:4/4] x8 |] %16

